!!!!SEGMENT: pl-sa--552-a-ix-32--043_anonim--la-polacca.krn
!!!cenid: 18xx:554
!!!COM: Anonim
!!!COM-rismID: pe30004985
!!!CDT:
!!!CNT:
!!!OTL: La Polacca
!!!PDT:
!!!AGN: Secular
!!!SMS-siglum: PL-SA
!!!SMS-shelfmark: 552/A IX 32
!!!SMS-shelfwork: 043 W
!!!SMS-variant:
!!!SMS-altvar:
!!!NIFC-rismSourceID: 1001069588
!!!NIFC-rismChildID: 1001069588
!!!NIFC-islandoraID:
!!!URL-pdf-islandora:
!!!URL-scan: https://bc.bdsandomierz.pl/dlibra/publication/1308/edition/1276/content @EN{Scan in the Sandomierz Diocese Digital Library} @PL{Skany w portalu Cyfrowa Biblioteka Diecezjalna w Sandomierzu}
!!!ONB-nifc: Str. 23
!!!AIN: 1 empty 1 vox
!!!key:
**kern	**kern	**dynam	**kern	**text
*part2	*part2	*part2	*part1	*part1
*staff3	*staff2	*	*staff1	*staff1
*Iempty	*Ipiano	*	*Ivox	*
*	*I"Piano	*	*I"Voce	*
*	*I'Pno.	*	*I'V.	*
*clefF4	*clefG2	*	*clefG2	*
*k[f#]	*k[f#]	*	*k[f#]	*
*G:	*G:	*	*G:	*
*M3/4	*M3/4	*	*M3/4	*
*>[A,B,C,C,D,D]	*>[A,B,C,C,D,D]	*	*>[A,B,C,C,D,D]	*
*>A	*>A	*	*>A	*
=1	=1	=1	=1	=1
*^	*	*	*	*
!	!	!	!	!LO:TX:a:Bi:t=la Polaca	!
!	!	!	!	!LO:TX:a:Bi:t=Śpiew z (...) Opery pod Tytułem Trzy Upiory. ſpiewany. przez (...)	!
!LO:N:vis=2	!	!	!	!	!
8G/L	2G\	8dd\L	p	2.r	.
!	!	!	!LO:DY:b=2	!	!
8dJ 8B/	.	8gg\J	p	.	.
*tremolo	*	*	*	*	*
8dL 8B/	.	4.bb\	.	.	.
8d 8B/	.	.	.	.	.
8d 8B/	4ryy	.	.	.	.
8dJ 8B/	.	8gg\	.	.	.
*Xtremolo	*	*	*	*	*
=2	=2	=2	=2	=2	=2
!LO:N:vis=2	!	!	!	!	!
8A/L	2A\	8ff#\L	.	2.r	.
8dJ 8c/	.	8aa\J	.	.	.
*tremolo	*	*	*	*	*
8f#L 8c/	.	4.ccc\	.	.	.
8f# 8c/	.	.	.	.	.
8f# 8c/	4ryy	.	.	.	.
8f#J 8c/	.	8aa\	.	.	.
*Xtremolo	*	*	*	*	*
=3	=3	=3	=3	=3	=3
*clefG2	*	*	*	*	*
*	*2\right	*	*	*	*
!LO:N:vis=2	!	!	!	!	!
8B/L	2B\	8gg\	.	2.r	.
8g 8d/	.	4gg\	.	.	.
8g 8d/	.	.	.	.	.
8gJ 8d/	.	16eee\LL	.	.	.
.	.	16ddd\JJ	.	.	.
8gL 8e 8c/	4ryy	16ccc\LL	.	.	.
.	.	16bb\	.	.	.
8aJ 8e 8c#X/	.	16aa\	.	.	.
.	.	16gg\JJ	.	.	.
*	*2\left	*	*	*	*
*v	*v	*	*	*	*
=4	=4	=4	=4	=4
8f#L 8d/	16ff#\LL	.	2.r	.
.	16aa\	.	.	.
8gJ 8e 8A/	16cc#X\	.	.	.
.	16ee\JJ	.	.	.
8r	4ee\	.	.	.
8g 8e 8A/	.	.	.	.
4f# 4d/	8dd\	.	.	.
.	8r	.	.	.
*clefF4	*	*	*	*
=5	=5	=5	=5	=5
!	!	!LO:DY:b:rj	!	!
16G\LL	8ggL 8b\	f	2.r	.
!	!	!LO:DY:b=2	!	!
16d\	.	f	.	.
16B\	8bb 8dd\	.	.	.
16d\JJ	.	.	.	.
*rep	*	*	*	*
16G\LL	8gg 8b\	.	.	.
16d\	.	.	.	.
16B\	8bb 8dd\	.	.	.
16d\JJ	.	.	.	.
*Xrep	*	*	*	*
*rep	*	*	*	*
16G\LL	8gg 8b\	.	.	.
16d\	.	.	.	.
16B\	8bbJ 8b\	.	.	.
16d\JJ	.	.	.	.
*Xrep	*	*	*	*
=6	=6	=6	=6	=6
16C\LL	16aa\LL	.	2.r	.
16A\	16bb\	.	.	.
16E\	16ccc\	.	.	.
16A\JJ	16bb\JJ	.	.	.
*rep	*	*	*	*
16C\LL	4.aa\	.	.	.
16A\	.	.	.	.
16E\	.	.	.	.
16A\JJ	.	.	.	.
*Xrep	*	*	*	*
*rep	*	*	*	*
16C\LL	.	.	.	.
16A\	.	.	.	.
16E\	8gg\	.	.	.
16A\JJ	.	.	.	.
*Xrep	*	*	*	*
=7	=7	=7	=7	=7
16D\LL	16ff#\LL	.	2.r	.
16c\	16aa\JJ	.	.	.
16A\	4dd\	.	.	.
16c\JJ	.	.	.	.
*rep	*	*	*	*
16D\LL	.	.	.	.
16c\	.	.	.	.
16A\	8dd\L	.	.	.
16c\JJ	.	.	.	.
*Xrep	*	*	*	*
*rep	*	*	*	*
16D\LL	8ee\	.	.	.
16c\	.	.	.	.
16A\	8ff#\J	.	.	.
16c\JJ	.	.	.	.
*Xrep	*	*	*	*
=8	=8	=8	=8	=8
!	!	!	!LO:TX:a:t=P:problem=w źródle pauza niewidoczna	!
8BL 8G\	16gg\LL	.	2.ryy	.
.	16ff#\	.	.	.
8cJ 8A 8F# 8D\	16bb\	.	.	.
.	16aa\JJ	.	.	.
8r	4aa\	.	.	.
8c 8A 8F# 8D\	.	.	.	.
4B 4G\	8gg\	.	.	.
.	8r	.	.	.
!LO:TX:b:t=[segno]:problem=znak segno na kresce taktowej	!LO:TX:b:t=[segno]:problem=znak segno na kresce taktowej	!	!LO:TX:b:t=[segno]:problem=znak segno na kresce taktowej	!
!!LO:LB:g=original
=9||	=9||	=9||	=9||	=9||
*>B	*>B	*	*>B	*
4G 4GG/	8r	p	8d/	Od
.	8g 8B/	.	8g/	tak,
*	*tremolo	*	*	*
4r	8gL 8d 8B/	.	4.b/	pięk-
.	8g 8d 8B/	.	.	.
4r	8g 8d 8B/	.	.	.
.	8gJ 8d 8B/	.	8g/	-nych
*	*Xtremolo	*	*	*
=10	=10	=10	=10	=10
4A 4GG/	8r	.	8f#/	o-
.	8f# 8d 8c/	.	8a/	-cząt
*	*tremolo	*	*	*
4r	8f#L 8d 8c/	.	4.cc\	prze-
.	8f# 8d 8c/	.	.	.
4r	8f# 8d 8c/	.	.	.
.	8f#J 8d 8c/	.	8a\	-cie
*	*Xtremolo	*	*	*
=11	=11	=11	=11	=11
8B 8BB\	8r	.	4.g/	nie
4r	8gL 8d/	.	.	.
.	8g 8d/	.	.	.
8BB/L	8g 8d/	.	16ee\LL	przyj-
.	.	.	16dd\JJ	.
8C/	8g 8e/	.	16cc\LL	-mu-
.	.	.	16b\	.
8C#X/J	8gJ 8e/	.	16a\	.
.	.	.	16g\JJ	.
=12	=12	=12	=12	=12
8D/L	8f#L 8d/	.	16f#/LL	-ie
.	.	.	16a/JJ	.
8AA/J	8gJ 8e 8c#X 8A/	.	16c#X/LL	się
.	.	.	16e/JJ	.
8r	(<4g 4e 4c# 4A/	.	4e/	za-
8AA/	.	.	.	.
4D\	4f# 4d/)	.	4d/	-płaty
=13	=13	=13	=13	=13
4G 4GG\	8r	.	8d/	Prze-
!	!LO:TX:a:t=P:problem=w źródle akord ósemkowy błędnie zaznaczony jako tremolo	!	!	!
.	8g 8d 8B/	.	8g/	-pusz-
*	*tremolo	*	*	*
4r	8gL 8d 8B/	.	4.b/	-czą
.	8g 8d 8B/	.	.	.
4r	8g 8d 8B/	.	.	.
.	8gJ 8d 8B/	.	8g/	Cię
*	*Xtremolo	*	*	*
=14	=14	=14	=14	=14
4A 4GG\	8r	.	8f#/	mo-
!	!LO:TX:a:t=P:problem=w źródle akord ósemkowy błędnie zaznaczony jako tremolo	!	!	!
.	8f# 8d 8c/	.	8a/	-ie
*	*tremolo	*	*	*
!	!	!	!LO:TX:a:t=e	!
4r	8f#L 8d 8c/	.	4.cc/	Dzie-
.	8f# 8d 8c/	.	.	.
4r	8f# 8d 8c/	.	.	.
!	!	!	!LO:TX:a:t=d	!
.	8f#J 8d 8c/	.	8a/	-cię
*	*Xtremolo	*	*	*
=15	=15	=15	=15	=15
*	*Xtuplet	*	*	*
!	!LO:TX:a:t=P:problem=w źródle nuta 4dd ma caudę po prawej stronie	!	!	!
4B 4BB\	4dd\	.	4dd\	Za-
8r	12gL 12d/	.	16b/LL	-gat-
.	.	.	16g/JJ	.
.	12g 12d/	.	.	.
8BB/L	.	.	8e/	-ki
.	12gJ 12d/	.	.	.
8C/	8gL 8c/	.	4cc\	ca-
8AA/J	8gJ 8e 8c/	.	.	.
*	*tuplet	*	*	*
=16	=16	=16	=16	=16
8G\L	8gL 8d 8B/	.	16dd\LL	-łe-
.	.	.	16b\JJ	.
8D\J	8f#J 8d 8c/	.	16f#/LL	-go
.	.	.	16a/JJ	.
4r	4f# 4d 4c/	.	4a/	ſwia-
8D\	8g 8d 8B/	.	4g/	-ta
8GG/	8r	.	.	.
=17!|:	=17!|:	=17!|:	=17!|:	=17!|:
*>C	*>C	*	*>C	*
4D 4DD/	8f#L 8d/	.	8f#/	I
.	8a 8f#/	.	8a/	cel-
4D 4DD/	8f# 8d/	.	8f#/	-ni-
.	8a 8f#/	.	8a/	-cy
4D 4DD/	8f# 8d/	.	8f#/	są
.	8aJ 8f#/	.	8a/	czu-
=18	=18	=18	=18	=18
*rep	*rep	*	*	*
4D 4DD/	8f#L 8d/	.	8dd\L	-łe-
.	8a 8f#/	.	8ff#\J	.
4D 4DD/	8f# 8d/	.	4.ff#\	-mi
.	8a 8f#/	.	.	.
4D 4DD/	8f# 8d/	.	.	.
.	8aJ 8f#/	.	16ee\LL	tu
.	.	.	16dd\JJ	.
*Xrep	*Xrep	*	*	*
!!LO:LB:g=original
=19	=19	=19	=19	=19
4AA/	8gL 8e/	.	4cc#X\	mo-
.	8a 8g/	.	.	.
4AA/	8g 8e/	.	8b\	-żesz
.	8a 8g/	.	8a\	przy-
4AA/	8g 8e/	.	8b\	-jąć
.	8aJ 8g/	.	8cc#\	bu-
=20	=20	=20	=20	=20
!LO:TX:a:t=P:problem=w źródle w tym takcie naniesione porpawki przez skryptora	!	!	!	!
4D 4DD/	8f#L 8d/	.	(>4.dd\	-ziacz-
.	8g 8e/	.	.	.
4r	8a 8f#/	.	.	.
.	8b 8g/	.	8ee\)	-ka
4r	8cc 8a/	.	4ccn\	mi-
.	8aJ 8f#/	.	.	.
=21	=21	=21	=21	=21
4G 4GG/	8bL 8g\	.	8b\	-ły
.	8dd 8b\	.	8dd\	bo-
4G 4GG/	8b 8g\	.	8b\	-day
.	8dd 8b\	.	8dd\	tyl-
4G 4GG/	8b 8g\	.	8b\	-ko
.	8ddJ 8b\	.	8dd\	na
=22	=22	=22	=22	=22
4C\	8ccL 8a/	.	16cc\LL	tey
.	.	.	16dd\	.
.	8ee 8cc/	.	16ee\	.
.	.	.	16dd\JJ	.
!	!LO:SIC:n=1:s=8b:v	!	!	!
!	!LO:SIC:n=2:s=8g:v	!	!	!
4C\	8a 8f#/	.	2g/	ziemi
.	8cc 8a/	.	.	.
4C\	8g 8e 8c/	.	.	.
.	8aJ 8e/	.	.	.
=23	=23	=23	=23	=23
4D\	8dL 8c/	.	8r	.
.	8f# 8d/	.	4d/	ta-
4D\	8d 8c/	.	.	.
.	8f# 8d/	.	8d/	-kie
4D\	8d 8c/	.	8e/	kon-
.	8f#J 8d/	.	8f#/	-tra-
=24	=24	=24	=24	=24
8G\L	8gL 8B/	.	16g/LL	-ban-
.	.	.	16b/JJ	.
8D\J	8f#J 8d 8c/	.	16a/LL	-dy
.	.	.	16f#/JJ	.
8r	4a 4e 4c/	.	4a/	by-
8D\	.	.	.	.
4GG/	8g 8d 8B/	.	4g/	-ły.
.	8r	.	.	.
=25!|:	=25!|:	=25!|:	=25!|:	=25!|:
*>D	*>D	*	*>D	*
*	*clefF4	*	*	*
!	!LO:TX:a:t=P:problem=W źródle partia Pianoo przeniosła się na jeden takt na pięciolinię prawej ręki	!	!LO:TX:a:t=P:problem=W źródle partia Piano przeniosła się na jeden takt na pięciolinię wokalną	!
2.ryy	16G\LL	.	8ggL 8b\	.
.	16d\	.	.	.
.	16B\	.	8bb 8dd\	.
.	16d\JJ	.	.	.
*	*rep	*	*	*
.	16G\LL	.	8gg 8b\	.
.	16d\	.	.	.
.	16B\	.	8bb 8dd\	.
.	16d\JJ	.	.	.
*	*Xrep	*	*	*
*	*rep	*	*	*
.	16G\LL	.	8gg 8b\	.
.	16d\	.	.	.
.	16B\	.	8bbJ 8dd\	.
.	16d\JJ	.	.	.
*	*Xrep	*	*	*
!!LO:LB:g=original
=26	=26	=26	=26	=26
!	!LO:CL:ed	!	!	!
*	*clefG2	*	*	*
16G\LL	8ggL 8b\	.	2.r	.
16d\	.	.	.	.
16B\	8bb 8dd\	.	.	.
16d\JJ	.	.	.	.
*rep	*	*	*	*
16G\LL	8gg 8b\	.	.	.
16d\	.	.	.	.
16B\	8bb 8dd\	.	.	.
16d\JJ	.	.	.	.
*Xrep	*	*	*	*
*rep	*	*	*	*
16G\LL	8gg 8b\	.	.	.
16d\	.	.	.	.
16B\	8bbJ 8dd\	.	.	.
16d\JJ	.	.	.	.
*Xrep	*	*	*	*
=27	=27	=27	=27	=27
16C\LL	16aa\LL	.	2.r	.
16A\	16bb\	.	.	.
16E\	16ccc\	.	.	.
16A\JJ	16bb\JJ	.	.	.
*rep	*	*	*	*
16C\LL	4aa\	.	.	.
16A\	.	.	.	.
16E\	.	.	.	.
16A\JJ	.	.	.	.
*Xrep	*	*	*	*
*rep	*	*	*	*
16C\LL	8gg\	.	.	.
16A\	.	.	.	.
!	!LO:TX:a:t=P:problem=W źródle brak pauzy	!	!	!
16E\	8ryy	.	.	.
16A\JJ	.	.	.	.
*Xrep	*	*	*	*
=28	=28	=28	=28	=28
16D\LL	16ff#\LL	.	2.r	.
16c\	16aa\JJ	.	.	.
16A\	4dd\	.	.	.
16c\JJ	.	.	.	.
*rep	*	*	*	*
16D\LL	.	.	.	.
16c\	.	.	.	.
16A\	8dd\L	.	.	.
16c\JJ	.	.	.	.
*Xrep	*	*	*	*
*rep	*	*	*	*
16D\LL	8ee\	.	.	.
16c\	.	.	.	.
16A\	8ff#\J	.	.	.
16c\JJ	.	.	.	.
*Xrep	*	*	*	*
=29	=29	=29	=29	=29
8BL 8G\	16gg\LL	.	2.r	.
.	16ff#\	.	.	.
8cJ 8F# 8D\	16bb\	.	.	.
.	16aa\JJ	.	.	.
4G 4D\	4aa\	.	.	.
8c 8F# 8D\	8gg\	.	.	.
!LO:N:vis=4	!	!	!	!
8B 8G\	8r	.	.	.
==	==	==	==	==
*-	*-	*-	*-	*-
!!!system-decoration: s1{(s2,s3)}
!!!RDF**kern: > = above
!!!RDF**kern: < = below
!!!EED: Wojciech Jakubiak-Danek
!!!EEV: 2020-12-13
!!!ENC: Tomasz Grochalski
!!!END: 2020-06-18
!!!YEC: Copyright 2022 Narodowy Instytut Fryderyka Chopina (https://polishscores.org)
!!!YEM: License CC-BY-4.0 (https://creativecommons.org/licenses/by/4.0)
